ivy-dev/32/pool/ppsspp.svg

<?xml version="1.0" encoding="UTF-8" standalone="no"?>
<!-- Created with Inkscape (http://www.inkscape.org/) -->

<svg
   xmlns:dc="http://purl.org/dc/elements/1.1/"
   xmlns:cc="http://creativecommons.org/ns#"
   xmlns:rdf="http://www.w3.org/1999/02/22-rdf-syntax-ns#"
   xmlns:svg="http://www.w3.org/2000/svg"
   xmlns="http://www.w3.org/2000/svg"
   xmlns:xlink="http://www.w3.org/1999/xlink"
   xmlns:inkscape="http://www.inkscape.org/namespaces/inkscape"
   version="1.1"
   width="48"
   height="48"
   id="svg2">
  <metadata
     id="metadata29">
    <rdf:RDF>
      <cc:Work
         rdf:about="">
        <dc:format>image/svg+xml</dc:format>
        <dc:type
           rdf:resource="http://purl.org/dc/dcmitype/StillImage" />
        <dc:title />
      </cc:Work>
    </rdf:RDF>
  </metadata>
  <defs
     id="defs4">
    <linearGradient
       id="linearGradient4037">
      <stop
         id="stop4039"
         style="stop-color:#ffffff;stop-opacity:1"
         offset="0" />
      <stop
         id="stop4041"
         style="stop-color:#ffffff;stop-opacity:0"
         offset="1" />
    </linearGradient>
    <linearGradient
       id="linearGradient4000">
      <stop
         id="stop4002"
         style="stop-color:#5288d1;stop-opacity:1"
         offset="0" />
      <stop
         id="stop4004"
         style="stop-color:#aac4e9;stop-opacity:1"
         offset="1" />
    </linearGradient>
    <linearGradient
       x1="46"
       y1="2"
       x2="46"
       y2="46"
       id="linearGradient4006"
       xlink:href="#linearGradient4000"
       gradientUnits="userSpaceOnUse" />
    <linearGradient
       x1="45"
       y1="3"
       x2="45"
       y2="45"
       id="linearGradient4043"
       xlink:href="#linearGradient4037"
       gradientUnits="userSpaceOnUse" />
  </defs>
  <path
     d="m 16,3 0,11 8,8 8,-8 L 32,3 16,3 z M 2,17 2,33 13,33 21,25 13,17 2,17 z m 33,0 -8,8 8,8 11,0 0,-16 -11,0 z m -11,11 -8,8 0,11 16,0 0,-11 -8,-8 z"
     inkscape:connector-curvature="0"
     id="path4055"
     style="opacity:0.2;fill:#000000;fill-opacity:1;stroke:none" />
  <g
     id="g3994"
     style="fill:url(#linearGradient4006);fill-opacity:1">
    <path
       d="m 16,2 16,0 0,11 -8,8 -8,-8 z"
       inkscape:connector-curvature="0"
       id="rect821"
       style="fill:url(#linearGradient4006);fill-opacity:1;stroke:none" />
    <path
       d="m 16,46 16,0 0,-11 -8,-8 -8,8 z"
       inkscape:connector-curvature="0"
       id="path828"
       style="fill:url(#linearGradient4006);fill-opacity:1;stroke:none" />
    <path
       d="m 2,16 0,16 11,0 8,-8 -8,-8 z"
       inkscape:connector-curvature="0"
       id="path830"
       style="fill:url(#linearGradient4006);fill-opacity:1;stroke:none" />
    <path
       d="m 46,16 0,16 -11,0 -8,-8 8,-8 z"
       inkscape:connector-curvature="0"
       id="path832"
       style="fill:url(#linearGradient4006);fill-opacity:1;stroke:none" />
  </g>
  <path
     d="m 16.5,2.5 0,10.28125 7.5,7.53125 7.5,-7.53125 0,-10.28125 -15,0 z m -14,14 0,15 10.28125,0 L 20.3125,24 12.78125,16.5 2.5,16.5 z m 32.6875,0 -7.5,7.5 7.53125,7.5 10.28125,0 0,-15 -10.3125,0 z M 24,27.6875 l -7.5,7.53125 0,10.28125 15,0 0,-10.28125 L 24,27.6875 z"
     inkscape:connector-curvature="0"
     id="path4033"
     style="opacity:0.4;fill:none;stroke:#000000" />
  <path
     d="m 17.5,3.5 0,8.875 6.5,6.5 6.5,-6.5 0,-8.875 -13,0 z m -14,14 0,13 8.875,0 6.5,-6.5 -6.5,-6.5 -8.875,0 z m 32.125,0 -6.5,6.5 6.5,6.5 8.875,0 0,-13 -8.875,0 z M 24,29.125 l -6.5,6.5 0,8.875 13,0 0,-8.875 -6.5,-6.5 z"
     inkscape:connector-curvature="0"
     id="path4035"
     style="opacity:0.4;fill:none;stroke:url(#linearGradient4043)" />
</svg>

<?xml version="1.0" encoding="UTF-8" standalone="no"?>
<!-- Created with Inkscape (http://www.inkscape.org/) -->

<svg
   xmlns:dc="http://purl.org/dc/elements/1.1/"
   xmlns:cc="http://creativecommons.org/ns#"
   xmlns:rdf="http://www.w3.org/1999/02/22-rdf-syntax-ns#"
   xmlns:svg="http://www.w3.org/2000/svg"
   xmlns="http://www.w3.org/2000/svg"
   xmlns:xlink="http://www.w3.org/1999/xlink"
   version="1.1"
   width="48"
   height="48"
   id="svg2">
  <metadata
     id="metadata29">
    <rdf:RDF>
      <cc:Work
         rdf:about="">
        <dc:format>image/svg+xml</dc:format>
        <dc:type
           rdf:resource="http://purl.org/dc/dcmitype/StillImage" />
        <dc:title></dc:title>
      </cc:Work>
    </rdf:RDF>
  </metadata>
  <defs
     id="defs4">
    <linearGradient
       id="linearGradient4037">
      <stop
         id="stop4039"
         style="stop-color:#ffffff;stop-opacity:1"
         offset="0" />
      <stop
         id="stop4041"
         style="stop-color:#ffffff;stop-opacity:0"
         offset="1" />
    </linearGradient>
    <linearGradient
       id="linearGradient4000">
      <stop
         id="stop4002"
         style="stop-color:#5288d1;stop-opacity:1"
         offset="0" />
      <stop
         id="stop4004"
         style="stop-color:#aac4e9;stop-opacity:1"
         offset="1" />
    </linearGradient>
    <linearGradient
       x1="46"
       y1="2"
       x2="46"
       y2="46"
       id="linearGradient4006"
       xlink:href="#linearGradient4000"
       gradientUnits="userSpaceOnUse" />
    <linearGradient
       x1="45"
       y1="3"
       x2="45"
       y2="45"
       id="linearGradient4043"
       xlink:href="#linearGradient4037"
       gradientUnits="userSpaceOnUse" />
  </defs>
  <path
     d="m 16,3 0,11 8,8 8,-8 L 32,3 16,3 Z M 2,17 2,33 13,33 21,25 13,17 2,17 z m 33,0 -8,8 8,8 11,0 L 46,17 35,17 Z M 24,28 16,36 16,47 32,47 32,36 24,28 Z"
     id="path4055"
     style="opacity:0.2;fill:#000000;fill-opacity:1;stroke:none" />
  <g
     id="g3994"
     style="fill:url(#linearGradient4006);fill-opacity:1">
    <path
       d="M 16,2 32,2 32,13 24,21 16,13 Z"
       id="rect821"
       style="fill:url(#linearGradient4006);fill-opacity:1;stroke:none" />
    <path
       d="M 16,46 32,46 32,35 24,27 16,35 Z"
       id="path828"
       style="fill:url(#linearGradient4006);fill-opacity:1;stroke:none" />
    <path
       d="M 2,16 2,32 13,32 21,24 13,16 Z"
       id="path830"
       style="fill:url(#linearGradient4006);fill-opacity:1;stroke:none" />
    <path
       d="M 46,16 46,32 35,32 27,24 35,16 Z"
       id="path832"
       style="fill:url(#linearGradient4006);fill-opacity:1;stroke:none" />
  </g>
  <path
     d="m 16.5,2.5 0,10.28125 L 24,20.3125 31.5,12.78125 31.5,2.5 16.5,2.5 z m -14,14 0,15 10.28125,0 L 20.3125,24 12.78125,16.5 2.5,16.5 z m 32.6875,0 -7.5,7.5 7.53125,7.5 10.28125,0 0,-15 L 35.1875,16.5 Z M 24,27.6875 l -7.5,7.53125 0,10.28125 15,0 0,-10.28125 L 24,27.6875 Z"
     id="path4033"
     style="opacity:0.4;fill:none;stroke:#000000" />
  <path
     d="m 17.5,3.5 0,8.875 6.5,6.5 6.5,-6.5 L 30.5,3.5 17.5,3.5 z m -14,14 0,13 8.875,0 6.5,-6.5 -6.5,-6.5 L 3.5,17.5 z m 32.125,0 -6.5,6.5 6.5,6.5 8.875,0 0,-13 L 35.625,17.5 Z M 24,29.125 l -6.5,6.5 0,8.875 13,0 0,-8.875 L 24,29.125 Z"
     id="path4035"
     style="opacity:0.4;fill:none;stroke:url(#linearGradient4043)" />
</svg>
